<?xml version="1.0" encoding="UTF-8"?>
<map version="1.10" tiledversion="1.12.0" orientation="orthogonal" renderorder="right-down" width="16" height="24" tilewidth="16" tileheight="16" infinite="0" nextlayerid="8" nextobjectid="15">
 <tileset firstgid="1" source="cryptophage-ts.tsx"/>
 <layer id="1" name="base" width="16" height="24">
  <data encoding="csv">
231,231,231,231,231,231,231,231,231,231,231,231,231,231,231,231,
231,263,259,318,259,259,259,259,318,259,262,231,231,231,231,231,
231,232,374,373,373,373,373,373,373,373,258,259,262,231,231,231,
231,232,373,372,372,372,372,372,372,373,373,374,258,262,231,231,
231,232,373,372,371,371,371,371,372,372,373,373,373,230,231,231,
231,232,373,372,372,371,371,371,371,372,373,373,373,258,262,231,
231,235,204,373,372,372,372,372,372,372,373,373,373,373,230,231,
231,231,232,373,373,373,373,373,373,373,373,373,373,373,230,231,
231,231,235,204,373,374,373,373,373,372,372,372,372,372,230,231,
231,231,231,232,373,373,373,373,373,372,371,371,371,371,230,231,
231,231,231,232,373,373,202,203,203,203,203,204,371,371,230,231,
231,231,231,232,373,373,230,231,231,231,231,232,371,371,230,231,
231,231,231,232,373,373,230,231,231,231,231,232,371,371,230,231,
231,231,231,232,373,373,258,259,259,259,259,260,371,371,230,231,
231,231,231,232,373,373,373,373,373,372,371,371,371,371,230,231,
231,231,263,260,373,373,373,373,373,372,372,372,372,372,230,231,
231,231,232,373,373,373,373,373,373,373,373,373,373,373,230,231,
231,263,260,373,372,372,372,372,372,372,373,373,373,373,230,231,
231,232,373,372,372,371,371,371,371,372,373,374,373,202,234,231,
231,232,373,372,371,371,371,371,372,372,373,373,373,230,231,231,
231,232,373,372,372,372,372,372,372,373,373,373,202,234,231,231,
231,232,374,373,373,373,373,373,373,373,202,203,234,231,231,231,
231,235,203,203,203,203,203,203,203,203,234,231,231,231,231,231,
231,231,231,231,231,231,231,231,231,231,231,231,231,231,231,231
</data>
 </layer>
 <layer id="2" name="accessories" width="16" height="24">
  <data encoding="csv">
0,0,0,0,0,0,0,0,0,0,0,0,0,0,0,0,
0,0,0,0,0,0,0,0,0,0,0,0,0,0,0,0,
0,0,0,0,0,339,0,0,0,0,0,0,0,0,0,0,
0,0,0,377,0,0,0,0,0,0,339,0,0,0,0,0,
0,0,0,0,538,0,0,0,0,0,0,0,348,0,0,0,
0,0,0,0,0,0,0,0,538,0,0,0,0,0,0,0,
0,0,0,0,0,0,0,0,0,0,0,0,0,339,0,0,
0,0,0,0,0,0,0,0,0,0,0,0,0,0,0,0,
0,0,0,0,0,0,0,0,0,538,0,0,0,0,0,0,
0,0,0,0,0,0,0,0,0,0,0,0,0,0,0,0,
0,0,0,0,0,0,0,0,0,0,0,0,0,0,0,0,
0,0,0,0,0,0,0,0,0,0,0,0,0,0,0,0,
0,0,0,0,0,0,0,0,0,0,0,0,0,0,0,0,
0,0,0,0,0,0,0,0,0,0,0,0,0,0,0,0,
0,0,0,0,0,0,0,376,0,0,0,0,0,0,0,0,
0,0,0,0,0,0,0,0,0,538,0,0,0,0,0,0,
0,0,0,0,0,0,0,0,0,0,0,0,0,0,0,0,
0,0,0,0,0,0,0,0,0,0,0,0,377,0,0,0,
0,0,0,0,0,0,0,0,538,0,0,0,0,0,0,0,
0,0,0,0,538,0,0,0,0,0,0,0,0,0,0,0,
0,0,349,0,0,0,0,0,0,0,0,0,0,0,0,0,
0,0,0,0,0,339,0,0,0,339,0,0,0,0,0,0,
0,0,0,0,0,0,0,0,0,0,0,0,0,0,0,0,
0,0,0,0,0,0,0,0,0,0,0,0,0,0,0,0
</data>
 </layer>
 <objectgroup id="4" name="p-entrances-left">
  <object id="12" x="16" y="288" width="16" height="64"/>
  <object id="13" x="48" y="144" width="16" height="96"/>
  <object id="14" x="16" y="32" width="16" height="64"/>
 </objectgroup>
 <objectgroup id="5" name="p-entrances-right">
  <object id="10" x="224" y="96" width="16" height="192"/>
 </objectgroup>
 <objectgroup id="6" name="p-entrances-up">
  <object id="9" x="32" y="16" width="128" height="16"/>
 </objectgroup>
 <objectgroup id="7" name="p-entrances-down">
  <object id="11" x="32" y="352" width="128" height="16"/>
 </objectgroup>
 <layer id="3" name="foreground" width="16" height="24">
  <data encoding="csv">
0,0,0,0,0,0,0,0,0,0,0,0,0,0,0,0,
0,0,0,0,0,0,0,0,0,0,0,0,0,0,0,0,
0,0,0,0,0,0,0,0,0,0,0,0,0,0,0,0,
0,0,0,0,510,0,0,0,0,0,0,0,0,0,0,0,
0,0,0,0,0,0,0,0,510,0,0,0,0,0,0,0,
0,0,0,0,0,0,0,0,0,0,0,0,0,0,0,0,
0,0,0,0,0,0,0,0,0,0,0,0,0,0,0,0,
0,0,0,0,0,0,0,0,0,510,0,0,0,0,0,0,
0,0,0,0,0,0,0,0,0,0,0,0,0,0,0,0,
0,0,0,0,0,0,0,0,0,0,0,0,0,0,0,0,
0,0,0,0,0,0,0,0,0,0,0,0,0,0,0,0,
0,0,0,0,0,0,0,0,0,0,0,0,0,0,0,0,
0,0,0,0,0,0,0,0,0,0,0,0,0,0,0,0,
0,0,0,0,0,0,0,0,0,0,0,0,0,0,0,0,
0,0,0,0,0,0,0,0,0,510,0,0,0,0,0,0,
0,0,0,0,0,0,0,0,0,0,0,0,0,0,0,0,
0,0,0,0,0,0,0,0,0,0,0,0,0,0,0,0,
0,0,0,0,0,0,0,0,510,0,0,0,0,0,0,0,
0,0,0,0,510,0,0,0,0,0,0,0,0,0,0,0,
0,0,0,0,0,0,0,0,0,0,0,0,0,0,0,0,
0,0,0,0,0,0,0,0,0,0,0,0,0,0,0,0,
0,0,0,0,0,0,0,0,0,0,0,0,0,0,0,0,
0,0,0,0,0,0,0,0,0,0,0,0,0,0,0,0,
0,0,0,0,0,0,0,0,0,0,0,0,0,0,0,0
</data>
 </layer>
</map>
