<?xml version="1.0" encoding="UTF-8"?>
<map version="1.10" tiledversion="1.12.0" orientation="orthogonal" renderorder="right-down" width="16" height="16" tilewidth="16" tileheight="16" infinite="0" nextlayerid="8" nextobjectid="20">
 <tileset firstgid="1" source="cryptophage-ts.tsx"/>
 <layer id="1" name="base" width="16" height="16">
  <data encoding="csv">
231,231,231,231,231,231,231,231,231,231,231,231,231,231,231,231,
231,231,231,231,263,287,287,322,287,321,265,231,231,231,231,231,
231,231,231,231,232,373,373,373,373,373,237,231,231,231,231,231,
231,231,231,231,232,373,373,373,373,375,237,231,231,231,231,231,
231,231,231,231,232,373,373,373,373,373,258,262,231,231,231,231,
231,231,231,231,232,373,373,346,373,373,373,230,231,231,231,231,
231,231,231,231,232,373,373,373,373,373,373,230,231,231,231,231,
231,231,231,263,260,373,373,373,373,373,373,258,287,322,262,231,
231,231,231,232,373,373,373,373,373,373,373,373,373,373,237,231,
231,263,322,260,373,373,373,373,373,373,373,373,373,373,237,231,
231,232,373,373,373,373,373,373,373,373,345,373,373,373,237,231,
231,232,373,373,373,373,373,373,373,373,373,373,373,373,237,231,
231,232,373,375,373,373,373,373,202,204,373,346,373,373,237,231,
231,232,373,373,373,373,373,373,230,235,204,373,373,373,237,231,
231,235,203,203,203,203,203,203,234,231,235,203,203,203,234,231,
231,231,231,231,231,231,231,231,231,231,231,231,231,231,231,231
</data>
 </layer>
 <layer id="2" name="accessories" width="16" height="16">
  <data encoding="csv">
0,0,0,0,0,0,0,0,0,0,0,0,0,0,0,0,
0,0,0,0,0,0,0,0,0,0,0,0,0,0,0,0,
0,0,0,0,0,339,0,0,0,0,0,0,0,0,0,0,
0,0,0,0,0,339,0,0,0,0,0,0,0,0,0,0,
0,0,0,0,0,0,0,0,0,0,0,0,0,0,0,0,
0,0,0,0,0,0,0,0,0,0,0,0,0,0,0,0,
0,0,0,0,0,0,0,0,0,0,0,0,0,0,0,0,
0,0,0,0,0,0,0,350,351,0,0,0,0,0,0,0,
0,0,0,0,339,0,0,378,379,0,0,0,0,339,0,0,
0,0,0,0,0,0,0,0,0,0,0,0,0,0,0,0,
0,0,0,0,0,0,352,353,0,0,0,0,0,0,0,0,
0,0,0,0,0,0,380,381,0,0,0,0,0,0,0,0,
0,0,0,0,0,0,0,0,0,0,0,0,0,0,0,0,
0,0,0,0,0,0,0,339,0,0,0,0,0,0,0,0,
0,0,0,0,0,0,0,0,0,0,0,0,0,0,0,0,
0,0,0,0,0,0,0,0,0,0,0,0,0,0,0,0
</data>
 </layer>
 <objectgroup id="3" name="p-entrances-left">
  <object id="18" x="16" y="160" width="16" height="64"/>
  <object id="19" x="64" y="32" width="16" height="80"/>
 </objectgroup>
 <objectgroup id="4" name="p-entrances-right">
  <object id="14" x="224" y="128" width="16" height="96"/>
 </objectgroup>
 <objectgroup id="5" name="p-entrances-up">
  <object id="15" x="80" y="16" width="80" height="16"/>
 </objectgroup>
 <objectgroup id="6" name="p-entrances-down">
  <object id="16" x="176" y="224" width="48" height="16"/>
  <object id="17" x="32" y="224" width="96" height="16"/>
 </objectgroup>
 <layer id="7" name="foreground" width="16" height="16">
  <data encoding="csv">
0,0,0,0,0,0,0,0,0,0,0,0,0,0,0,0,
0,0,0,0,0,0,0,0,0,0,0,0,0,0,0,0,
0,0,0,0,0,0,0,0,0,0,0,0,0,0,0,0,
0,0,0,0,0,0,0,0,0,0,0,0,0,0,0,0,
0,0,0,0,0,0,0,0,0,0,0,0,0,0,0,0,
0,0,0,0,0,0,0,0,0,0,0,0,0,0,0,0,
0,0,0,0,0,0,0,0,0,0,0,0,0,0,0,0,
0,0,0,0,0,0,0,0,0,0,0,0,0,0,0,0,
0,0,0,0,0,0,0,0,0,0,0,0,0,0,0,0,
0,0,0,0,0,0,0,0,0,0,0,0,0,0,0,0,
0,0,0,0,0,0,0,0,0,0,0,0,0,0,0,0,
0,0,0,0,0,0,0,0,0,0,0,0,0,0,0,0,
0,0,0,0,0,0,0,0,0,0,0,0,0,0,0,0,
0,0,0,0,0,0,0,0,0,0,0,0,0,0,0,0,
0,0,0,0,0,0,0,0,0,0,0,0,0,0,0,0,
0,0,0,0,0,0,0,0,0,0,0,0,0,0,0,0
</data>
 </layer>
</map>
