<?xml version="1.0" encoding="UTF-8"?>
<map version="1.10" tiledversion="1.12.0" orientation="orthogonal" renderorder="right-down" width="16" height="16" tilewidth="16" tileheight="16" infinite="0" nextlayerid="8" nextobjectid="17">
 <tileset firstgid="1" source="cryptophage-ts.tsx"/>
 <layer id="1" name="base" width="16" height="16">
  <data encoding="csv">
231,231,231,231,231,231,231,231,231,231,231,231,231,231,231,231,
231,231,231,231,231,231,263,287,287,287,287,287,287,287,265,231,
231,231,231,231,231,231,232,373,373,373,373,373,373,373,237,231,
231,231,231,231,231,231,232,373,373,373,373,373,374,373,237,231,
231,263,287,287,287,287,260,373,374,373,373,373,373,373,237,231,
231,268,373,373,373,373,373,373,373,373,373,373,373,373,237,231,
231,268,373,373,374,373,372,372,372,372,373,373,373,373,237,231,
231,268,373,373,373,373,372,371,371,372,373,373,373,373,237,231,
231,268,373,373,373,373,372,371,371,372,373,373,373,373,237,231,
231,268,373,373,373,373,372,372,372,372,374,373,373,373,237,231,
231,268,373,373,373,373,373,373,373,373,373,373,373,373,237,231,
231,268,373,373,373,373,373,373,373,209,211,211,211,211,234,231,
231,268,373,374,373,373,373,373,373,237,231,231,231,231,231,231,
231,268,373,373,373,373,373,373,374,237,231,231,231,231,231,231,
231,235,211,211,211,211,211,211,211,234,231,231,231,231,231,231,
231,231,231,231,231,231,231,231,231,231,231,231,231,231,231,231
</data>
 </layer>
 <layer id="2" name="accessories" width="16" height="16">
  <data encoding="csv">
0,0,0,0,0,0,0,0,0,0,0,0,0,0,0,0,
0,0,0,0,0,0,0,0,0,0,0,0,0,0,0,0,
0,0,0,0,0,0,0,0,0,0,0,0,339,0,0,0,
0,0,0,0,0,0,0,0,0,0,0,0,0,0,0,0,
0,0,0,0,0,0,0,0,0,0,0,0,0,0,0,0,
0,0,339,339,0,0,0,0,0,0,0,0,0,0,0,0,
0,0,0,0,0,0,0,0,0,538,0,0,0,0,0,0,
0,0,0,0,0,0,0,0,0,0,0,0,0,0,0,0,
0,0,0,0,0,0,0,0,0,0,0,0,0,0,0,0,
0,0,0,0,0,0,538,0,0,0,0,0,0,0,0,0,
0,0,0,0,0,0,0,0,0,0,0,0,0,0,0,0,
0,0,0,0,0,0,0,0,0,0,0,0,0,0,0,0,
0,0,0,0,0,0,0,0,339,0,0,0,0,0,0,0,
0,0,0,0,0,0,0,0,0,0,0,0,0,0,0,0,
0,0,0,0,0,0,0,0,0,0,0,0,0,0,0,0,
0,0,0,0,0,0,0,0,0,0,0,0,0,0,0,0
</data>
 </layer>
 <objectgroup id="4" name="p-entrances-left">
  <object id="15" x="16" y="80" width="16" height="144"/>
 </objectgroup>
 <objectgroup id="5" name="p-entrances-right">
  <object id="14" x="224" y="32" width="16" height="144"/>
 </objectgroup>
 <objectgroup id="6" name="p-entrances-up">
  <object id="12" x="112" y="16" width="112" height="16"/>
  <object id="13" x="32" y="64" width="64" height="16"/>
 </objectgroup>
 <objectgroup id="7" name="p-entrances-down">
  <object id="16" x="32" y="224" width="112" height="16"/>
 </objectgroup>
 <layer id="3" name="foreground" width="16" height="16">
  <data encoding="csv">
0,0,0,0,0,0,0,0,0,0,0,0,0,0,0,0,
0,0,0,0,0,0,0,0,0,0,0,0,0,0,0,0,
0,0,0,0,0,0,0,0,0,0,0,0,0,0,0,0,
0,0,0,0,0,0,0,0,0,0,0,0,0,0,0,0,
0,0,0,0,0,0,0,0,0,0,0,0,0,0,0,0,
0,0,0,0,0,0,0,0,0,510,0,0,0,0,0,0,
0,0,0,0,0,0,0,0,0,0,0,0,0,0,0,0,
0,0,0,0,0,0,0,0,0,0,0,0,0,0,0,0,
0,0,0,0,0,0,510,0,0,0,0,0,0,0,0,0,
0,0,0,0,0,0,0,0,0,0,0,0,0,0,0,0,
0,0,0,0,0,0,0,0,0,0,0,0,0,0,0,0,
0,0,0,0,0,0,0,0,0,0,0,0,0,0,0,0,
0,0,0,0,0,0,0,0,0,0,0,0,0,0,0,0,
0,0,0,0,0,0,0,0,0,0,0,0,0,0,0,0,
0,0,0,0,0,0,0,0,0,0,0,0,0,0,0,0,
0,0,0,0,0,0,0,0,0,0,0,0,0,0,0,0
</data>
 </layer>
</map>
