<?xml version="1.0" encoding="UTF-8"?>
<map version="1.10" tiledversion="1.12.0" orientation="orthogonal" renderorder="right-down" width="24" height="24" tilewidth="16" tileheight="16" infinite="0" nextlayerid="9" nextobjectid="9">
 <tileset firstgid="1" source="cryptophage-ts.tsx"/>
 <layer id="1" name="base" width="24" height="24">
  <data encoding="csv">
231,231,231,231,231,231,231,231,231,231,231,231,231,231,231,231,231,231,231,231,231,231,231,231,
231,231,231,231,231,231,231,231,263,259,321,322,259,259,259,262,231,231,231,231,231,231,231,231,
231,231,231,231,231,231,231,263,260,371,371,371,371,371,371,258,262,231,231,231,231,231,231,231,
231,231,231,231,231,231,263,260,371,373,373,373,373,373,373,371,258,262,231,231,231,231,231,231,
231,231,231,231,231,231,232,371,373,373,373,202,204,373,373,373,371,230,231,231,231,231,231,231,
231,231,231,231,231,231,232,371,373,373,373,258,260,373,373,373,371,230,231,231,231,231,231,231,
231,231,231,263,259,322,260,371,373,345,373,373,373,373,347,373,371,258,259,321,262,231,231,231,
231,231,263,260,371,371,371,373,373,373,373,373,373,373,373,373,373,371,371,371,258,262,231,231,
231,263,260,371,373,373,373,373,202,204,373,373,373,373,202,204,373,373,373,373,371,258,262,231,
231,232,371,373,373,373,347,373,258,260,372,372,372,372,258,260,373,345,373,373,373,371,230,231,
231,232,371,373,373,373,373,373,373,372,371,371,371,371,372,373,373,373,373,373,373,371,230,231,
231,232,371,373,202,204,373,373,373,372,371,202,204,371,372,373,373,373,202,204,373,371,230,231,
231,232,371,373,258,260,373,373,373,372,371,258,260,371,372,373,373,373,258,260,373,371,230,231,
231,232,371,373,373,373,373,373,373,372,371,371,371,371,372,373,373,373,373,373,373,371,230,231,
231,232,371,373,373,373,347,373,202,204,372,372,372,372,202,204,373,347,373,373,373,371,230,231,
231,235,204,371,373,373,373,373,258,260,373,373,373,373,258,260,373,373,373,373,371,202,234,231,
231,231,235,204,371,371,371,373,373,373,373,373,373,373,373,373,373,371,371,371,202,234,231,231,
231,231,231,235,203,203,204,371,373,345,373,373,373,373,345,373,371,202,203,203,234,231,231,231,
231,231,231,231,231,231,232,371,373,373,373,202,204,373,373,373,371,230,231,231,231,231,231,231,
231,231,231,231,231,231,232,371,373,373,373,258,260,373,373,373,371,230,231,231,231,231,231,231,
231,231,231,231,231,231,235,204,371,373,373,373,373,373,373,371,202,234,231,231,231,231,231,231,
231,231,231,231,231,231,231,235,204,371,371,371,371,371,371,202,234,231,231,231,231,231,231,231,
231,231,231,231,231,231,231,231,235,203,203,203,203,203,203,234,231,231,231,231,231,231,231,231,
231,231,231,231,231,231,231,231,231,231,231,231,231,231,231,231,231,231,231,231,231,231,231,231
</data>
 </layer>
 <layer id="2" name="accessories" width="24" height="24">
  <data encoding="csv">
0,0,0,0,0,0,0,0,0,0,0,0,0,0,0,0,0,0,0,0,0,0,0,0,
0,0,0,0,0,0,0,0,0,0,318,0,0,318,0,0,0,0,0,0,0,0,0,0,
0,0,0,0,0,0,0,0,0,339,0,377,0,339,0,0,0,0,0,0,0,0,0,0,
0,0,0,0,0,0,0,0,0,0,0,0,0,0,0,0,0,0,0,0,0,0,0,0,
0,0,0,0,0,0,0,0,0,0,0,0,0,0,0,0,339,0,0,0,0,0,0,0,
0,0,0,0,0,0,0,0,377,0,0,0,0,0,0,0,0,0,0,0,0,0,0,0,
0,0,0,0,0,318,0,0,0,0,0,0,0,0,0,0,0,0,318,0,0,0,0,0,
0,0,0,0,339,0,0,0,0,0,0,0,0,0,0,0,0,0,0,339,0,0,0,0,
0,0,0,0,0,0,0,0,0,0,0,0,0,0,0,0,0,0,0,0,339,0,0,0,
0,0,339,0,0,376,0,0,0,0,0,0,0,0,0,0,0,0,0,376,0,0,0,0,
0,0,0,0,0,0,0,0,0,0,0,0,0,0,0,0,0,0,0,0,0,0,0,0,
0,0,0,0,0,0,0,0,0,0,0,0,0,0,350,351,0,0,0,0,0,339,0,0,
0,0,0,0,0,0,0,0,0,0,0,0,0,0,378,379,0,0,0,0,0,0,0,0,
0,0,339,0,0,0,0,0,0,0,0,0,0,0,0,0,0,0,0,0,0,0,0,0,
0,0,339,0,0,0,0,0,0,0,0,0,0,0,0,0,0,0,0,0,0,339,0,0,
0,0,0,0,352,353,0,0,0,0,0,0,0,0,0,0,0,0,0,0,0,0,0,0,
0,0,0,0,380,381,0,0,0,0,0,0,0,0,0,0,0,0,0,339,0,0,0,0,
0,0,0,0,0,0,0,339,0,0,0,0,0,0,0,0,0,0,0,0,0,0,0,0,
0,0,0,0,0,0,0,0,0,0,0,0,0,0,0,0,0,0,0,0,0,0,0,0,
0,0,0,0,0,0,0,0,0,0,0,0,0,349,0,0,339,0,0,0,0,0,0,0,
0,0,0,0,0,0,0,0,339,0,0,0,0,0,0,0,0,0,0,0,0,0,0,0,
0,0,0,0,0,0,0,0,0,339,377,0,0,0,339,0,0,0,0,0,0,0,0,0,
0,0,0,0,0,0,0,0,0,0,0,0,0,0,0,0,0,0,0,0,0,0,0,0,
0,0,0,0,0,0,0,0,0,0,0,0,0,0,0,0,0,0,0,0,0,0,0,0
</data>
 </layer>
 <objectgroup id="4" name="p-entrances-left">
  <object id="5" x="16" y="144" width="16" height="96"/>
 </objectgroup>
 <objectgroup id="5" name="p-entrances-right">
  <object id="6" x="352" y="144" width="16" height="96"/>
 </objectgroup>
 <objectgroup id="6" name="p-entrances-up">
  <object id="7" x="144" y="16" width="96" height="16"/>
 </objectgroup>
 <objectgroup id="7" name="p-entrances-down">
  <object id="8" x="144" y="352" width="96" height="16"/>
 </objectgroup>
 <layer id="8" name="foreground" width="24" height="24">
  <data encoding="csv">
0,0,0,0,0,0,0,0,0,0,0,0,0,0,0,0,0,0,0,0,0,0,0,0,
0,0,0,0,0,0,0,0,0,0,0,0,0,0,0,0,0,0,0,0,0,0,0,0,
0,0,0,0,0,0,0,0,0,0,0,0,0,0,0,0,0,0,0,0,0,0,0,0,
0,0,0,0,0,0,0,0,0,0,0,0,0,0,0,0,0,0,0,0,0,0,0,0,
0,0,0,0,0,0,0,0,0,0,0,0,0,0,0,0,0,0,0,0,0,0,0,0,
0,0,0,0,0,0,0,0,0,0,0,0,0,0,0,0,0,0,0,0,0,0,0,0,
0,0,0,0,0,0,0,0,0,0,0,0,0,0,0,0,0,0,0,0,0,0,0,0,
0,0,0,0,0,0,0,0,0,0,0,0,0,0,0,0,0,0,0,0,0,0,0,0,
0,0,0,0,0,0,0,0,0,0,0,0,0,0,0,0,0,0,0,0,0,0,0,0,
0,0,0,0,0,0,0,0,0,0,0,0,0,0,0,0,0,0,0,0,0,0,0,0,
0,0,0,0,0,0,0,0,0,0,0,0,0,0,0,0,0,0,0,0,0,0,0,0,
0,0,0,0,0,0,0,0,0,0,0,0,0,0,0,0,0,0,0,0,0,0,0,0,
0,0,0,0,0,0,0,0,0,0,0,0,0,0,0,0,0,0,0,0,0,0,0,0,
0,0,0,0,0,0,0,0,0,0,0,0,0,0,0,0,0,0,0,0,0,0,0,0,
0,0,0,0,0,0,0,0,0,0,0,0,0,0,0,0,0,0,0,0,0,0,0,0,
0,0,0,0,0,0,0,0,0,0,0,0,0,0,0,0,0,0,0,0,0,0,0,0,
0,0,0,0,0,0,0,0,0,0,0,0,0,0,0,0,0,0,0,0,0,0,0,0,
0,0,0,0,0,0,0,0,0,0,0,0,0,0,0,0,0,0,0,0,0,0,0,0,
0,0,0,0,0,0,0,0,0,0,0,0,0,0,0,0,0,0,0,0,0,0,0,0,
0,0,0,0,0,0,0,0,0,0,0,0,0,0,0,0,0,0,0,0,0,0,0,0,
0,0,0,0,0,0,0,0,0,0,0,0,0,0,0,0,0,0,0,0,0,0,0,0,
0,0,0,0,0,0,0,0,0,0,0,0,0,0,0,0,0,0,0,0,0,0,0,0,
0,0,0,0,0,0,0,0,0,0,0,0,0,0,0,0,0,0,0,0,0,0,0,0,
0,0,0,0,0,0,0,0,0,0,0,0,0,0,0,0,0,0,0,0,0,0,0,0
</data>
 </layer>
</map>
