<?xml version="1.0" encoding="UTF-8"?>
<map version="1.10" tiledversion="1.12.0" orientation="orthogonal" renderorder="right-down" width="16" height="24" tilewidth="16" tileheight="16" infinite="0" nextlayerid="8" nextobjectid="9">
 <tileset firstgid="1" source="cryptophage-ts.tsx"/>
 <layer id="1" name="base" width="16" height="24">
  <data encoding="csv">
231,231,231,231,231,231,231,231,231,231,231,231,231,231,231,231,
231,263,287,318,287,287,318,287,287,318,287,287,318,287,262,231,
231,232,374,373,373,373,373,373,373,373,373,373,373,374,230,231,
231,232,373,373,373,373,373,373,373,373,373,373,373,373,230,231,
231,232,373,373,373,373,373,373,373,373,373,373,373,373,230,231,
231,232,373,373,202,203,203,203,203,203,203,204,373,373,230,231,
231,232,373,373,258,259,259,259,259,259,259,260,373,373,230,231,
231,232,373,373,374,373,373,373,373,373,373,373,373,373,230,231,
231,232,373,373,373,373,373,373,373,373,373,373,373,373,230,231,
231,232,373,373,202,203,203,204,372,372,372,372,373,373,230,231,
231,232,373,373,230,263,259,260,371,371,371,372,373,373,230,231,
231,232,373,373,230,232,371,371,371,371,371,372,373,373,230,231,
231,232,373,373,230,232,371,371,371,371,371,372,373,373,230,231,
231,232,373,373,230,235,203,204,371,371,371,372,373,373,230,231,
231,232,373,373,258,259,259,260,372,372,372,372,373,373,230,231,
231,232,373,373,373,373,373,373,373,373,373,373,373,373,230,231,
231,232,373,373,373,373,373,373,373,373,373,373,374,373,230,231,
231,232,373,373,202,203,203,203,203,203,203,204,373,373,230,231,
231,232,373,373,258,259,259,259,259,259,259,260,373,373,230,231,
231,232,373,373,373,373,373,373,373,373,373,373,373,373,230,231,
231,232,373,374,373,373,373,373,373,373,373,373,373,373,230,231,
231,232,373,373,373,373,373,373,373,373,373,373,373,374,230,231,
231,235,203,203,203,203,203,203,203,203,203,203,203,203,234,231,
231,231,231,231,231,231,231,231,231,231,231,231,231,231,231,231
</data>
 </layer>
 <layer id="2" name="accessories" width="16" height="24">
  <data encoding="csv">
0,0,0,0,0,0,0,0,0,0,0,0,0,0,0,0,
0,0,0,0,0,0,0,0,0,0,0,0,0,0,0,0,
0,0,0,0,0,0,0,0,0,0,0,0,0,0,0,0,
0,0,0,0,0,0,0,0,0,0,0,376,0,0,0,0,
0,0,0,0,0,0,339,0,339,0,0,0,0,0,0,0,
0,0,0,0,0,0,0,0,0,0,0,0,0,0,0,0,
0,0,0,0,0,0,0,0,0,0,0,0,0,0,0,0,
0,0,0,0,0,0,0,0,0,377,0,0,0,0,0,0,
0,0,0,0,0,0,0,0,0,0,0,0,0,0,0,0,
0,0,0,0,0,0,0,0,0,0,0,538,0,0,0,0,
0,0,0,0,0,0,0,0,0,0,0,0,0,0,0,0,
0,0,0,0,0,0,0,0,0,0,0,0,0,0,0,0,
0,0,0,0,0,0,0,0,0,0,0,0,0,0,0,0,
0,0,0,0,0,0,0,0,0,0,0,0,0,0,0,0,
0,0,0,0,0,0,0,0,0,0,0,538,0,0,0,0,
0,0,0,0,0,0,0,0,0,0,0,0,0,0,0,0,
0,0,0,0,0,0,0,0,0,0,0,0,0,0,0,0,
0,0,0,0,0,0,0,0,0,0,0,0,0,0,0,0,
0,0,0,0,0,0,0,0,0,0,0,0,0,0,0,0,
0,0,0,0,339,0,339,0,0,0,0,339,0,0,0,0,
0,0,0,0,0,0,0,0,0,0,0,0,0,0,0,0,
0,0,0,0,0,0,0,0,376,0,0,0,0,0,0,0,
0,0,0,0,0,0,0,0,0,0,0,0,0,0,0,0,
0,0,0,0,0,0,0,0,0,0,0,0,0,0,0,0
</data>
 </layer>
 <objectgroup id="4" name="p-entrances-left">
  <object id="7" x="16" y="32" width="16" height="320"/>
 </objectgroup>
 <objectgroup id="5" name="p-entrances-right">
  <object id="6" x="224" y="32" width="16" height="320"/>
 </objectgroup>
 <objectgroup id="6" name="p-entrances-up">
  <object id="5" x="32" y="16" width="192" height="16"/>
 </objectgroup>
 <objectgroup id="7" name="p-entrances-down">
  <object id="8" x="32" y="352" width="192" height="16"/>
 </objectgroup>
 <layer id="3" name="foreground" width="16" height="24">
  <data encoding="csv">
0,0,0,0,0,0,0,0,0,0,0,0,0,0,0,0,
0,0,0,0,0,0,0,0,0,0,0,0,0,0,0,0,
0,0,0,0,0,0,0,0,0,0,0,0,0,0,0,0,
0,0,0,0,0,0,0,0,0,0,0,0,0,0,0,0,
0,0,0,0,0,0,0,0,0,0,0,0,0,0,0,0,
0,0,0,0,0,0,0,0,0,0,0,0,0,0,0,0,
0,0,0,0,0,0,0,0,0,0,0,0,0,0,0,0,
0,0,0,0,0,0,0,0,0,0,0,0,0,0,0,0,
0,0,0,0,0,0,0,0,0,0,0,510,0,0,0,0,
0,0,0,0,0,0,0,0,0,0,0,0,0,0,0,0,
0,0,0,0,0,0,0,0,0,0,0,0,0,0,0,0,
0,0,0,0,0,0,0,0,0,0,0,0,0,0,0,0,
0,0,0,0,0,0,0,0,0,0,0,0,0,0,0,0,
0,0,0,0,0,0,0,0,0,0,0,510,0,0,0,0,
0,0,0,0,0,0,0,0,0,0,0,0,0,0,0,0,
0,0,0,0,0,0,0,0,0,0,0,0,0,0,0,0,
0,0,0,0,0,0,0,0,0,0,0,0,0,0,0,0,
0,0,0,0,0,0,0,0,0,0,0,0,0,0,0,0,
0,0,0,0,0,0,0,0,0,0,0,0,0,0,0,0,
0,0,0,0,0,0,0,0,0,0,0,0,0,0,0,0,
0,0,0,0,0,0,0,0,0,0,0,0,0,0,0,0,
0,0,0,0,0,0,0,0,0,0,0,0,0,0,0,0,
0,0,0,0,0,0,0,0,0,0,0,0,0,0,0,0,
0,0,0,0,0,0,0,0,0,0,0,0,0,0,0,0
</data>
 </layer>
</map>
