<?xml version="1.0" encoding="UTF-8"?>
<map version="1.10" tiledversion="1.12.0" orientation="orthogonal" renderorder="right-down" width="24" height="16" tilewidth="16" tileheight="16" infinite="0" nextlayerid="8" nextobjectid="10">
 <tileset firstgid="1" source="cryptophage-ts.tsx"/>
 <layer id="1" name="base" width="24" height="16">
  <data encoding="csv">
231,231,231,231,231,231,231,231,231,231,231,231,231,231,231,231,231,231,231,231,231,231,231,231,
231,231,231,231,231,231,231,263,259,259,318,259,259,318,259,259,262,231,231,231,231,231,231,231,
231,231,231,231,263,259,318,260,373,373,373,373,373,373,373,373,258,318,259,262,231,231,231,231,
231,231,231,263,260,373,373,373,345,372,372,372,372,372,372,373,373,373,373,258,262,231,231,231,
231,231,263,318,373,373,373,373,372,371,371,202,204,371,371,372,347,373,373,373,318,262,231,231,
231,263,260,373,373,373,373,372,371,371,202,234,235,204,371,371,372,373,373,373,373,258,262,231,
231,232,373,373,373,373,373,372,371,371,230,231,231,232,371,371,372,373,373,373,373,373,230,231,
231,232,373,373,373,373,373,372,371,371,230,231,231,232,371,371,372,373,373,373,373,373,230,231,
231,232,373,373,373,373,373,372,371,371,230,231,231,232,371,371,372,373,373,373,373,373,230,231,
231,232,373,373,373,373,373,372,371,371,230,231,231,232,371,371,372,373,373,373,373,373,230,231,
231,235,204,373,373,373,373,372,371,371,258,262,263,260,371,371,372,373,373,373,373,202,234,231,
231,231,235,204,373,373,373,347,372,371,371,258,260,371,371,372,373,373,373,373,202,234,231,231,
231,231,231,235,204,373,373,373,373,372,372,372,372,372,372,345,373,373,373,202,234,231,231,231,
231,231,231,231,235,203,203,204,373,373,373,373,373,373,373,373,202,203,203,234,231,231,231,231,
231,231,231,231,231,231,231,235,203,203,203,203,203,203,203,203,234,231,231,231,231,231,231,231,
231,231,231,231,231,231,231,231,231,231,231,231,231,231,231,231,231,231,231,231,231,231,231,231
</data>
 </layer>
 <layer id="2" name="accessories" width="24" height="16">
  <data encoding="csv">
0,0,0,0,0,0,0,0,0,0,0,0,0,0,0,0,0,0,0,0,0,0,0,0,
0,0,0,0,0,0,0,0,0,0,0,0,0,0,0,0,0,0,0,0,0,0,0,0,
0,0,0,0,0,0,0,0,0,0,0,0,0,0,0,339,0,0,0,0,0,0,0,0,
0,0,0,0,0,339,0,0,0,0,0,0,0,0,0,0,0,0,339,0,0,0,0,0,
0,0,0,0,377,0,0,349,0,0,0,0,0,0,0,0,0,0,0,0,0,0,0,0,
0,0,0,0,0,0,538,0,0,0,0,0,0,0,0,0,0,538,377,0,0,0,0,0,
0,0,339,0,0,0,0,0,0,0,0,0,0,0,0,0,0,0,0,0,0,339,0,0,
0,0,0,0,0,0,0,0,0,0,0,0,0,0,0,0,0,0,0,0,0,0,0,0,
0,0,0,0,0,352,353,0,0,0,0,0,0,0,0,0,0,0,0,0,0,0,0,0,
0,0,339,0,0,380,381,0,0,0,0,0,0,0,0,0,0,0,0,0,0,0,0,0,
0,0,0,0,0,0,538,0,0,0,0,0,0,0,0,0,0,538,0,0,0,0,0,0,
0,0,0,0,377,0,0,0,0,0,0,0,0,0,0,0,0,0,348,0,0,0,0,0,
0,0,0,0,0,0,0,0,0,0,0,0,0,0,0,0,0,0,0,0,0,0,0,0,
0,0,0,0,0,0,0,0,0,0,0,0,0,0,0,0,0,0,0,0,0,0,0,0,
0,0,0,0,0,0,0,0,0,0,0,0,0,0,0,0,0,0,0,0,0,0,0,0,
0,0,0,0,0,0,0,0,0,0,0,0,0,0,0,0,0,0,0,0,0,0,0,0
</data>
 </layer>
 <objectgroup id="4" name="p-entrances-left">
  <object id="6" x="16" y="96" width="16" height="64"/>
 </objectgroup>
 <objectgroup id="5" name="p-entrances-right">
  <object id="7" x="352" y="96" width="16" height="64"/>
 </objectgroup>
 <objectgroup id="6" name="p-entrances-up">
  <object id="8" x="128" y="16" width="128" height="16"/>
 </objectgroup>
 <objectgroup id="7" name="p-entrances-down">
  <object id="9" x="128" y="224" width="128" height="16"/>
 </objectgroup>
 <layer id="3" name="foreground" width="24" height="16">
  <data encoding="csv">
0,0,0,0,0,0,0,0,0,0,0,0,0,0,0,0,0,0,0,0,0,0,0,0,
0,0,0,0,0,0,0,0,0,0,0,0,0,0,0,0,0,0,0,0,0,0,0,0,
0,0,0,0,0,0,0,0,0,0,0,0,0,0,0,0,0,0,0,0,0,0,0,0,
0,0,0,0,0,0,0,0,0,0,0,0,0,0,0,0,0,0,0,0,0,0,0,0,
0,0,0,0,0,0,510,0,0,0,0,0,0,0,0,0,0,510,0,0,0,0,0,0,
0,0,0,0,0,0,0,0,0,0,0,0,0,0,0,0,0,0,0,0,0,0,0,0,
0,0,0,0,0,0,0,0,0,0,0,0,0,0,0,0,0,0,0,0,0,0,0,0,
0,0,0,0,0,0,0,0,0,0,0,0,0,0,0,0,0,0,0,0,0,0,0,0,
0,0,0,0,0,0,0,0,0,0,0,0,0,0,0,0,0,0,0,0,0,0,0,0,
0,0,0,0,0,0,510,0,0,0,0,0,0,0,0,0,0,510,0,0,0,0,0,0,
0,0,0,0,0,0,0,0,0,0,0,0,0,0,0,0,0,0,0,0,0,0,0,0,
0,0,0,0,0,0,0,0,0,0,0,0,0,0,0,0,0,0,0,0,0,0,0,0,
0,0,0,0,0,0,0,0,0,0,0,0,0,0,0,0,0,0,0,0,0,0,0,0,
0,0,0,0,0,0,0,0,0,0,0,0,0,0,0,0,0,0,0,0,0,0,0,0,
0,0,0,0,0,0,0,0,0,0,0,0,0,0,0,0,0,0,0,0,0,0,0,0,
0,0,0,0,0,0,0,0,0,0,0,0,0,0,0,0,0,0,0,0,0,0,0,0
</data>
 </layer>
</map>
