<?xml version="1.0" encoding="UTF-8"?>
<map version="1.10" tiledversion="1.12.0" orientation="orthogonal" renderorder="right-down" width="16" height="16" tilewidth="16" tileheight="16" infinite="0" nextlayerid="8" nextobjectid="14">
 <editorsettings>
  <export target="dungeon-s-1.tmx" format="tmx"/>
 </editorsettings>
 <tileset firstgid="1" source="cryptophage-ts.tsx"/>
 <layer id="1" name="base" width="16" height="16">
  <data encoding="csv">
231,231,231,231,231,231,231,231,231,231,231,231,231,231,231,231,
231,240,287,287,287,287,287,287,287,287,287,287,287,287,262,231,
231,268,373,373,373,373,373,373,373,373,373,373,373,373,237,231,
231,268,373,373,373,373,374,373,373,373,373,373,373,373,230,231,
231,268,374,373,373,373,373,373,373,373,373,373,373,373,230,231,
231,268,373,373,373,373,373,373,373,373,373,373,374,373,230,231,
231,235,203,203,204,373,373,373,373,373,373,202,203,203,234,231,
231,231,231,231,232,373,373,373,374,373,373,230,231,231,231,231,
231,231,231,231,232,373,373,373,373,373,373,230,231,231,231,231,
231,240,259,259,260,373,373,373,373,373,373,258,259,259,262,231,
231,268,373,373,373,373,373,373,373,373,373,373,374,373,237,231,
231,268,373,373,373,373,373,373,373,373,373,108,373,373,237,231,
231,268,373,374,373,373,373,373,373,373,373,373,373,373,237,231,
231,268,373,373,373,373,373,373,374,373,373,373,373,373,237,231,
231,235,207,207,207,207,207,207,207,207,207,207,207,207,234,231,
231,231,231,231,231,231,231,231,231,231,231,231,231,231,231,231
</data>
 </layer>
 <layer id="2" name="accessories" width="16" height="16">
  <data encoding="csv">
0,0,0,0,0,0,0,0,0,0,0,0,0,0,0,0,
0,0,0,0,0,0,0,0,0,0,0,0,0,0,0,0,
0,0,0,339,0,0,0,0,0,339,0,339,0,0,0,0,
0,0,0,0,0,0,0,0,0,0,0,0,0,0,0,0,
0,0,0,0,0,0,0,0,0,0,0,0,0,0,0,0,
0,0,0,0,0,0,0,0,0,0,0,0,0,0,0,0,
0,0,0,0,0,0,0,0,0,0,0,0,0,0,0,0,
0,0,0,0,0,0,538,0,0,538,0,0,0,0,0,0,
0,0,0,0,0,0,0,0,0,0,0,0,0,0,0,0,
0,0,0,0,0,0,0,350,351,0,0,0,0,0,0,0,
0,0,339,0,0,0,0,378,379,0,0,0,0,0,0,0,
0,0,0,0,0,0,0,0,0,0,0,0,0,0,0,0,
0,0,0,0,0,0,0,0,0,0,0,0,0,0,0,0,
0,0,0,0,0,0,0,0,0,0,0,0,0,339,0,0,
0,0,0,0,0,0,0,0,0,0,0,0,0,0,0,0,
0,0,0,0,0,0,0,0,0,0,0,0,0,0,0,0
</data>
 </layer>
 <objectgroup id="4" name="p-entrances-left">
  <object id="9" x="16" y="32" width="16" height="64"/>
  <object id="10" x="16" y="160" width="16" height="64"/>
 </objectgroup>
 <objectgroup id="5" name="p-entrances-right">
  <object id="11" x="224" y="32" width="16" height="64"/>
  <object id="12" x="224" y="160" width="16" height="64"/>
 </objectgroup>
 <objectgroup id="6" name="p-entrances-up">
  <object id="8" x="32" y="16" width="192" height="16"/>
 </objectgroup>
 <objectgroup id="7" name="p-entrances-down">
  <object id="13" x="32" y="224" width="192" height="16"/>
 </objectgroup>
 <layer id="3" name="foreground" width="16" height="16">
  <data encoding="csv">
0,0,0,0,0,0,0,0,0,0,0,0,0,0,0,0,
0,0,0,0,0,0,0,0,0,0,0,0,0,0,0,0,
0,0,0,0,0,0,0,0,0,0,0,0,0,0,0,0,
0,0,0,0,0,0,0,0,0,0,0,0,0,0,0,0,
0,0,0,0,0,0,0,0,0,0,0,0,0,0,0,0,
0,0,0,0,0,0,0,0,0,0,0,0,0,0,0,0,
0,0,0,0,0,0,510,0,0,510,0,0,0,0,0,0,
0,0,0,0,0,0,0,0,0,0,0,0,0,0,0,0,
0,0,0,0,0,0,0,0,0,0,0,0,0,0,0,0,
0,0,0,0,0,0,0,0,0,0,0,0,0,0,0,0,
0,0,0,0,0,0,0,0,0,0,0,0,0,0,0,0,
0,0,0,0,0,0,0,0,0,0,0,0,0,0,0,0,
0,0,0,0,0,0,0,0,0,0,0,0,0,0,0,0,
0,0,0,0,0,0,0,0,0,0,0,0,0,0,0,0,
0,0,0,0,0,0,0,0,0,0,0,0,0,0,0,0,
0,0,0,0,0,0,0,0,0,0,0,0,0,0,0,0
</data>
 </layer>
</map>
