<?xml version="1.0" encoding="UTF-8"?>
<map version="1.10" tiledversion="1.12.0" orientation="orthogonal" renderorder="right-down" width="16" height="16" tilewidth="16" tileheight="16" infinite="0" nextlayerid="8" nextobjectid="9">
 <tileset firstgid="1" source="cryptophage-ts.tsx"/>
 <layer id="1" name="base" width="16" height="16">
  <data encoding="csv">
231,231,231,231,231,231,231,231,231,231,231,231,231,231,231,231,
231,231,240,287,287,287,287,287,287,287,287,287,287,265,231,231,
231,240,260,373,373,373,373,373,373,373,373,374,373,258,265,231,
231,232,373,373,373,373,373,373,373,373,373,373,373,373,230,231,
231,232,373,374,202,203,203,203,203,203,203,204,373,373,230,231,
231,232,373,373,258,259,259,259,259,259,259,260,373,373,230,231,
231,232,373,373,373,373,372,370,370,372,373,373,373,373,230,231,
231,232,373,373,373,373,372,370,370,372,373,373,373,373,230,231,
231,232,373,373,373,373,372,370,370,372,373,373,373,373,230,231,
231,232,373,373,373,373,372,370,370,372,373,373,373,373,230,231,
231,232,373,373,202,203,203,203,203,203,203,204,373,373,230,231,
231,232,373,373,258,259,259,259,259,259,259,260,373,373,230,231,
231,232,373,374,373,373,373,373,373,373,373,373,373,373,230,231,
231,235,204,373,373,373,373,373,373,373,373,373,374,202,234,231,
231,231,235,203,203,203,203,203,203,203,203,203,203,234,231,231,
231,231,231,231,231,231,231,231,231,231,231,231,231,231,231,231
</data>
 </layer>
 <layer id="2" name="accessories" width="16" height="16">
  <data encoding="csv">
0,0,0,0,0,0,0,0,0,0,0,0,0,0,0,0,
0,0,0,0,0,0,0,0,0,0,0,0,0,0,0,0,
0,0,0,0,0,0,0,0,0,0,0,0,339,0,0,0,
0,0,339,0,0,0,0,0,0,0,0,0,0,0,0,0,
0,0,0,0,0,0,0,0,0,0,0,0,0,0,0,0,
0,0,0,0,0,0,0,0,0,0,0,0,0,0,0,0,
0,0,0,0,0,0,0,371,371,0,339,0,0,0,0,0,
0,0,0,0,0,0,0,371,371,0,0,0,0,0,0,0,
0,0,0,0,0,0,0,371,371,0,0,0,0,0,0,0,
0,0,0,0,0,0,0,371,371,0,0,0,0,0,0,0,
0,0,0,0,0,0,0,0,0,0,0,0,0,0,0,0,
0,0,0,0,0,0,0,0,0,0,0,0,0,0,0,0,
0,0,339,0,0,0,0,0,0,0,0,0,0,339,0,0,
0,0,0,0,0,0,0,0,0,0,0,0,0,0,0,0,
0,0,0,0,0,0,0,0,0,0,0,0,0,0,0,0,
0,0,0,0,0,0,0,0,0,0,0,0,0,0,0,0
</data>
 </layer>
 <objectgroup id="3" name="p-entrances-left">
  <object id="8" x="16" y="48" width="16" height="160"/>
 </objectgroup>
 <objectgroup id="4" name="p-entrances-right">
  <object id="7" x="224" y="48" width="16" height="160"/>
 </objectgroup>
 <objectgroup id="5" name="p-entrances-up">
  <object id="6" x="48" y="16" width="160" height="16"/>
 </objectgroup>
 <objectgroup id="6" name="p-entrances-down">
  <object id="5" x="48" y="224" width="160" height="16"/>
 </objectgroup>
 <layer id="7" name="foreground" width="16" height="16">
  <data encoding="csv">
0,0,0,0,0,0,0,0,0,0,0,0,0,0,0,0,
0,0,0,0,0,0,0,0,0,0,0,0,0,0,0,0,
0,0,0,0,0,0,0,0,0,0,0,0,0,0,0,0,
0,0,0,0,0,0,0,0,0,0,0,0,0,0,0,0,
0,0,0,0,0,0,0,0,0,0,0,0,0,0,0,0,
0,0,0,0,0,0,0,0,0,0,0,0,0,0,0,0,
0,0,0,0,0,0,0,0,0,0,0,0,0,0,0,0,
0,0,0,0,0,0,0,0,0,0,0,0,0,0,0,0,
0,0,0,0,0,0,0,0,0,0,0,0,0,0,0,0,
0,0,0,0,0,0,0,0,0,0,0,0,0,0,0,0,
0,0,0,0,0,0,0,0,0,0,0,0,0,0,0,0,
0,0,0,0,0,0,0,0,0,0,0,0,0,0,0,0,
0,0,0,0,0,0,0,0,0,0,0,0,0,0,0,0,
0,0,0,0,0,0,0,0,0,0,0,0,0,0,0,0,
0,0,0,0,0,0,0,0,0,0,0,0,0,0,0,0,
0,0,0,0,0,0,0,0,0,0,0,0,0,0,0,0
</data>
 </layer>
</map>
