<?xml version="1.0" encoding="UTF-8"?>
<map version="1.10" tiledversion="1.11.2" orientation="orthogonal" renderorder="right-down" width="24" height="24" tilewidth="16" tileheight="16" infinite="0" nextlayerid="8" nextobjectid="44">
 <tileset firstgid="1" source="term-project.tsx"/>
 <layer id="1" name="background" width="24" height="24">
  <data encoding="csv">
149,149,149,149,149,149,149,149,149,149,149,149,149,149,149,149,149,149,149,149,149,149,149,149,
149,149,149,149,149,149,149,149,149,149,149,149,149,149,149,149,149,149,149,149,149,149,149,149,
149,232,373,373,373,373,373,373,373,373,373,373,373,373,373,373,373,373,373,373,373,373,230,149,
149,232,373,373,373,373,373,373,373,373,373,373,373,373,373,371,371,371,371,371,371,373,230,149,
149,232,373,373,373,373,373,373,373,373,373,373,373,373,373,371,372,372,372,372,371,373,230,149,
149,232,373,373,373,202,203,203,203,203,203,203,203,204,373,371,372,370,370,372,371,373,230,149,
149,232,373,373,373,230,149,149,149,149,149,149,149,232,373,371,372,370,370,372,371,373,230,149,
149,232,373,373,373,230,149,149,149,149,149,149,149,232,373,371,372,372,372,372,371,373,230,149,
149,232,373,373,373,230,149,149,149,149,149,149,149,232,373,371,371,371,371,371,371,373,230,149,
149,232,373,373,373,230,149,149,149,149,149,149,149,232,373,373,373,373,373,373,373,373,230,149,
149,232,373,373,373,230,149,149,149,149,149,149,149,235,203,203,203,203,204,373,373,373,230,149,
149,232,373,373,373,230,149,149,149,149,149,149,149,149,149,149,149,149,232,373,373,373,230,149,
149,232,373,373,373,230,149,149,149,149,149,149,149,149,149,149,149,149,232,373,373,373,230,149,
149,232,373,373,373,230,149,149,149,149,149,149,149,149,149,149,149,149,232,373,373,373,230,149,
149,232,373,373,373,373,373,373,373,373,230,149,149,149,149,149,149,149,232,373,373,373,230,149,
149,232,373,371,371,371,371,371,371,373,230,149,149,149,149,149,149,149,232,373,373,373,230,149,
149,232,373,371,372,372,372,372,371,373,230,149,149,149,149,149,149,149,232,373,373,373,230,149,
149,232,373,371,372,370,370,372,371,373,230,149,149,149,149,149,149,149,232,373,373,373,230,149,
149,232,373,371,372,370,370,372,371,373,230,149,149,149,149,149,149,149,232,373,373,373,230,149,
149,232,373,371,372,372,372,372,371,373,373,373,373,373,373,373,373,373,373,373,373,373,230,149,
149,232,373,371,371,371,371,371,371,373,373,373,373,373,373,373,373,373,373,373,373,373,230,149,
149,232,373,373,373,373,373,373,373,373,373,373,373,373,373,373,373,373,373,373,373,373,230,149,
149,235,203,203,203,203,203,203,203,203,203,203,203,203,203,203,203,203,203,203,203,203,234,149,
149,149,149,149,149,149,149,149,149,149,149,149,149,149,149,149,149,149,149,149,149,149,149,149
</data>
 </layer>
 <layer id="3" name="details" width="24" height="24">
  <data encoding="csv">
0,0,0,0,0,0,0,0,0,0,0,0,0,0,0,0,0,0,0,0,0,0,0,0,
0,0,431,431,431,431,431,431,431,431,431,431,431,431,431,431,431,431,431,431,431,431,0,0,
0,0,339,0,0,0,0,0,0,0,0,0,0,0,0,0,0,0,0,0,339,339,0,0,
0,0,0,0,0,0,0,0,0,349,0,0,0,0,0,0,0,0,0,0,0,0,0,0,
0,0,0,0,0,0,0,0,376,0,0,0,0,0,0,0,0,0,0,0,0,0,0,0,
0,0,0,0,377,0,0,0,0,0,0,0,0,0,0,0,0,0,0,0,0,0,0,0,
0,0,0,0,0,0,0,0,0,0,0,0,0,0,0,377,0,0,0,0,0,0,0,0,
0,0,376,0,0,0,0,0,0,0,0,0,0,0,0,0,0,0,0,350,351,0,0,0,
0,0,0,0,0,0,0,0,0,0,0,0,0,0,0,0,0,0,0,378,379,0,0,0,
0,0,0,0,0,0,0,0,0,0,0,0,0,0,0,0,0,0,0,0,0,0,0,0,
0,0,0,0,0,0,0,0,0,0,0,0,0,0,0,0,0,0,0,0,0,0,0,0,
0,0,0,0,0,0,0,0,0,0,0,0,0,0,0,0,0,0,0,0,0,0,0,0,
0,0,0,0,0,0,0,0,0,0,0,0,0,0,0,0,0,0,0,0,0,0,0,0,
0,0,0,0,0,409,409,409,409,409,0,0,0,0,0,0,0,0,0,0,0,0,0,0,
0,0,0,0,0,0,0,0,339,339,0,0,0,0,0,0,0,0,0,0,0,0,0,0,
0,0,0,350,351,0,0,0,0,0,0,0,0,0,0,0,0,0,0,0,0,0,0,0,
0,0,0,378,379,0,0,0,377,0,0,0,0,0,0,0,0,0,0,0,377,0,0,0,
0,0,0,0,0,0,0,0,0,0,0,0,0,0,0,0,0,0,0,0,0,0,0,0,
0,0,0,0,0,0,0,0,0,0,431,431,431,431,431,431,431,431,431,0,0,0,0,0,
0,0,0,0,0,0,0,0,0,0,0,0,0,0,0,0,0,0,352,353,0,0,0,0,
0,0,0,0,0,0,0,0,0,0,0,0,0,0,0,0,0,0,380,381,0,0,0,0,
0,0,339,0,0,0,0,0,0,0,376,0,0,0,0,0,0,0,0,0,0,339,0,0,
0,0,0,0,0,0,0,0,0,0,0,0,0,0,0,0,0,0,0,0,0,0,0,0,
0,0,0,0,0,0,0,0,0,0,0,0,0,0,0,0,0,0,0,0,0,0,0,0
</data>
 </layer>
 <layer id="2" name="foreground" width="24" height="24">
  <data encoding="csv">
0,0,0,0,0,0,0,0,0,0,0,0,0,0,0,0,0,0,0,0,0,0,0,0,
0,0,0,0,0,0,0,0,0,0,0,0,0,0,0,0,0,0,0,0,0,0,0,0,
0,0,0,0,0,0,0,0,0,0,0,0,0,0,0,0,0,0,0,0,0,0,0,0,
0,0,0,0,0,0,0,0,0,0,0,0,0,0,0,0,0,0,0,0,0,0,0,0,
0,0,0,0,0,0,0,0,0,0,0,0,0,0,0,0,0,0,0,0,0,0,0,0,
0,0,0,0,0,0,0,0,0,0,0,0,0,0,0,0,0,0,0,0,0,0,0,0,
0,0,0,0,0,0,0,0,0,0,0,0,0,0,0,0,0,0,0,0,0,0,0,0,
0,0,0,0,0,0,0,0,0,0,0,0,0,0,0,0,0,0,0,0,0,0,0,0,
0,0,0,0,0,0,0,0,0,0,0,0,0,0,0,0,0,0,0,0,0,0,0,0,
0,0,0,0,0,0,0,0,0,0,0,0,0,0,0,0,0,0,0,0,0,0,0,0,
0,0,0,0,0,0,0,0,0,0,0,0,0,0,0,0,0,0,0,0,0,0,0,0,
0,0,0,0,0,0,0,0,0,0,0,0,0,0,0,0,0,0,0,0,0,0,0,0,
0,0,0,0,0,0,0,0,0,0,0,0,0,0,0,0,0,0,0,0,0,0,0,0,
0,0,0,0,0,0,0,0,0,0,0,0,0,0,0,0,0,0,0,0,0,0,0,0,
0,0,0,0,0,0,0,0,0,0,0,0,0,0,0,0,0,0,0,0,0,0,0,0,
0,0,0,0,0,0,0,0,0,0,0,0,0,0,0,0,0,0,0,0,0,0,0,0,
0,0,0,0,0,0,0,0,0,0,0,0,0,0,0,0,0,0,0,0,0,0,0,0,
0,0,0,0,0,0,0,0,0,0,0,0,0,0,0,0,0,0,0,0,0,0,0,0,
0,0,0,0,0,0,0,0,0,0,0,0,0,0,0,0,0,0,0,0,0,0,0,0,
0,0,0,0,0,0,0,0,0,0,0,0,0,0,0,0,0,0,0,0,0,0,0,0,
0,0,0,0,0,0,0,0,0,0,0,0,0,0,0,0,0,0,0,0,0,0,0,0,
0,0,0,0,0,0,0,0,0,0,0,0,0,0,0,0,0,0,0,0,0,0,0,0,
0,0,0,0,0,0,0,0,0,0,0,0,0,0,0,0,0,0,0,0,0,0,0,0,
0,0,0,0,0,0,0,0,0,0,0,0,0,0,0,0,0,0,0,0,0,0,0,0
</data>
 </layer>
 <objectgroup id="4" name="objects">
  <object id="1" x="32" y="32">
   <polygon points="0,0 320,0 320,-16 0,-16"/>
  </object>
  <object id="2" x="352" y="16">
   <polygon points="0,0 0,352 16,352 16,0"/>
  </object>
  <object id="3" x="32" y="368">
   <polygon points="0,0 -16,0 -16,-352 0,-352"/>
  </object>
  <object id="4" x="32" y="352">
   <polygon points="0,0 0,16 320,16 320,0"/>
  </object>
  <object id="10" x="96" y="80">
   <polygon points="0,0 0,16 112,16 112,0"/>
  </object>
  <object id="11" x="96" y="208">
   <polygon points="0,0 64,0 64,16 0,16"/>
  </object>
  <object id="12" x="96" y="224">
   <polygon points="0,0 -16,0 -16,-144 0,-144"/>
  </object>
  <object id="13" x="208" y="80">
   <polygon points="0,0 0,96 16,96 16,0"/>
  </object>
  <object id="14" x="224" y="160">
   <polygon points="0,0 0,16 64,16 64,0"/>
  </object>
  <object id="15" x="288" y="160">
   <polygon points="0,0 0,144 16,144 16,0"/>
  </object>
  <object id="16" x="160" y="208">
   <polygon points="0,0 16,0 16,96 0,96"/>
  </object>
  <object id="17" x="176" y="288">
   <polygon points="0,0 0,16 112,16 112,0"/>
  </object>
  <object id="5" name="player" x="288" y="64" width="16" height="16"/>
  <object id="9" name="enemy1" x="48" y="48" width="16" height="16"/>
  <object id="18" name="enemy1" x="240" y="128" width="16" height="16"/>
  <object id="19" name="enemy1" x="304" y="112" width="16" height="16"/>
  <object id="20" name="enemy1" x="320" y="208" width="16" height="16"/>
  <object id="21" name="enemy1" x="320" y="272" width="16" height="16"/>
  <object id="22" name="enemy1" x="320" y="320" width="16" height="16"/>
  <object id="23" name="enemy1" x="288" y="336" width="16" height="16"/>
  <object id="24" name="enemy1" x="336" y="160" width="16" height="16"/>
  <object id="25" name="enemy1" x="224" y="80" width="16" height="16"/>
  <object id="26" name="enemy1" x="192" y="32" width="16" height="16"/>
  <object id="27" name="enemy1" x="144" y="48" width="16" height="16"/>
  <object id="28" name="enemy1" x="96.139" y="48.8407" width="15.861" height="15.1593"/>
  <object id="29" name="enemy1" x="32" y="80" width="16" height="16"/>
  <object id="30" name="enemy1" x="48" y="144" width="16" height="16"/>
  <object id="31" name="enemy1" x="64" y="176" width="16" height="16"/>
  <object id="32" name="enemy1" x="32" y="224" width="16" height="16"/>
  <object id="33" name="enemy1" x="80" y="240" width="16" height="16"/>
  <object id="34" name="enemy1" x="128" y="240" width="16" height="16"/>
  <object id="35" name="enemy1" x="128" y="304" width="16" height="16"/>
  <object id="36" name="enemy1" x="96" y="288" width="16" height="16"/>
  <object id="37" name="enemy1" x="48" y="272" width="16" height="16"/>
  <object id="38" name="enemy1" x="64" y="320" width="16" height="16"/>
  <object id="39" name="enemy1" x="176" y="336" width="16" height="16"/>
  <object id="40" name="enemy1" x="224" y="320" width="16" height="16"/>
  <object id="41" name="enemy1" x="64" y="112" width="16" height="16"/>
  <object id="42" name="enemy1" x="336" y="32" width="16" height="16"/>
  <object id="43" name="enemy1" x="256" y="32" width="16" height="16"/>
 </objectgroup>
 <objectgroup id="5" name="player"/>
 <objectgroup id="6" name="flyingEnemy1"/>
</map>
