<?xml version="1.0" encoding="UTF-8"?>
<map version="1.10" tiledversion="1.12.0" orientation="orthogonal" renderorder="right-down" width="20" height="16" tilewidth="16" tileheight="16" infinite="0" nextlayerid="4" nextobjectid="13">
 <tileset firstgid="1" source="placeholder.tsx"/>
 <layer id="1" name="Tile Layer 1" width="20" height="16">
  <data encoding="csv">
5,5,5,5,5,5,5,5,5,5,5,5,5,5,5,5,5,5,5,5,
5,5,5,5,5,5,5,5,5,5,5,5,5,5,5,5,5,5,5,5,
5,5,0,0,0,0,0,0,0,0,0,0,0,0,0,0,0,0,5,5,
5,5,0,0,0,0,0,0,0,0,0,0,0,0,0,0,0,0,5,5,
5,5,0,0,0,0,0,0,0,0,0,0,0,0,0,0,0,0,5,5,
5,5,0,0,0,0,0,0,0,5,5,0,0,0,0,0,0,0,5,5,
5,5,0,0,0,0,0,0,0,5,5,0,0,0,0,0,0,0,5,5,
5,5,0,0,0,0,0,5,5,5,5,5,5,0,0,0,0,0,5,5,
5,5,0,0,0,0,0,5,5,5,5,5,5,0,0,0,0,0,5,5,
5,5,0,0,0,0,0,0,0,5,5,0,0,0,0,0,0,0,5,5,
5,5,0,0,0,0,0,0,0,5,5,0,0,0,0,0,0,0,5,5,
5,5,0,0,0,0,0,0,0,0,0,0,0,0,0,0,0,0,5,5,
5,5,0,0,0,0,0,0,0,0,0,0,0,0,0,0,0,0,5,5,
5,5,0,0,0,0,0,0,0,0,0,0,0,0,0,0,0,0,5,5,
5,5,5,5,5,5,5,5,5,5,5,5,5,5,5,5,5,5,5,5,
5,5,5,5,5,5,5,5,5,5,5,5,5,5,5,5,5,5,5,5
</data>
 </layer>
</map>
